X:98
T:Waltz
O:No 98 Wm Clarke MS  Feltwell, Norfolk
I:abc2nwc
M:3/4
L:1/8
K:G
D2|GF GA Bc|e4B2|g2g2g2|de dc BA|
GF GA Bc|d4B2|^cd cd AB|G4:|
|:GB|d2g2b2|d'4b2|c'b ag fe|de dc BA|
G2Bd gb|d'4b2|ab c'a fd|g4:|

